icons/global-pandemic_fill.svg

<svg width="48" height="48" viewBox="0 0 48 48" fill="none" xmlns="http://www.w3.org/2000/svg">
<path fill-rule="evenodd" clip-rule="evenodd" d="M30.0886 7.0306C26.9407 5.91779 23.5474 5.70125 20.2846 6.40489C17.0217 7.10853 14.0161 8.705 11.6009 11.0179C9.313 13.2089 7.63948 15.9618 6.74363 19H15.1489C15.9444 18.9985 16.7168 19.2644 17.3438 19.7543C17.971 20.2443 18.4165 20.9302 18.6109 21.7024L18.6116 21.7053L19.895 26.8676C20.0252 27.3949 20.0345 27.9449 19.9219 28.4762C19.8094 29.0076 19.578 29.5066 19.2448 29.9352C18.9116 30.364 18.4853 30.7112 17.998 30.9501C17.5107 31.189 16.9755 31.3132 16.4329 31.313H15.4085L13.8567 39.1229C15.9585 40.5696 18.3488 41.559 20.8735 42.016C21.417 42.1144 21.7778 42.6347 21.6794 43.1781C21.581 43.7216 21.0607 44.0824 20.5173 43.984C16.8683 43.3235 13.473 41.6622 10.7076 39.1845C7.94211 36.7069 5.91434 33.5098 4.84838 29.9475C3.78242 26.3852 3.71974 22.5964 4.66726 19.0005C5.61478 15.4047 7.53564 12.1418 10.2176 9.57346C12.8995 7.0051 16.2378 5.23159 19.863 4.44983C23.4881 3.66807 27.2581 3.90869 30.7552 5.14496C34.2523 6.38121 37.3398 8.5647 39.6758 11.4531C42.0118 14.3415 43.5054 17.8221 43.9914 21.5093C44.0636 22.0569 43.6782 22.5592 43.1307 22.6314C42.5831 22.7036 42.0808 22.3183 42.0086 21.7707C41.5839 18.5495 40.3061 15.504 38.3113 12.9506C38.2134 12.9827 38.1087 13 38 13L31.5112 13C31.218 12.9997 30.9251 13.1032 30.6797 13.3067C30.4331 13.5111 30.2478 13.8063 30.1662 14.1521L28.9735 19.2287C28.8472 19.7664 28.3089 20.0998 27.7713 19.9735C27.2336 19.8472 26.9002 19.3089 27.0265 18.7713L28.2193 13.694C28.3971 12.9404 28.8094 12.2592 29.4033 11.7669C29.9983 11.2737 30.7405 10.9994 31.5127 11H36.5453C34.7024 9.2402 32.5038 7.88436 30.0886 7.0306ZM6.76444 29.3741C5.95011 26.6528 5.78559 23.7845 6.2747 21L15.1521 21C15.4991 20.9992 15.8371 21.1151 16.1124 21.3302C16.3875 21.5452 16.5846 21.8472 16.6711 22.1893L16.6714 22.1908L17.9535 27.3481C18.0112 27.582 18.0153 27.8261 17.9653 28.0618C17.9154 28.2978 17.8127 28.5187 17.6656 28.7079C17.5186 28.8972 17.331 29.0497 17.1176 29.1543C16.9042 29.2589 16.6698 29.3131 16.4329 29.313H14.5876C14.1105 29.313 13.6998 29.6501 13.6068 30.1181L12.0924 37.7398L12.0421 37.6949C9.55174 35.4638 7.72491 32.5839 6.76444 29.3741Z" fill="black"/>
<path d="M25.8227 35.7631C25.2397 34.9624 24.8379 34.0213 24.6777 33H22.9951C22.9449 33.5053 22.5185 33.9 22 33.9C21.4477 33.9 21 33.4523 21 32.9V31.1C21 30.5477 21.4477 30.1 22 30.1C22.5185 30.1 22.9449 30.4947 22.9951 31H24.6777C24.8379 29.9787 25.2397 29.0376 25.8227 28.2369L24.7 27.1142L24.5071 27.3071C24.1166 27.6976 23.4834 27.6976 23.0929 27.3071C22.7024 26.9166 22.7024 26.2834 23.0929 25.8929L24.8929 24.0929C25.2834 23.7024 25.9166 23.7024 26.3071 24.0929C26.6976 24.4834 26.6976 25.1166 26.3071 25.5071L26.1142 25.7L27.2369 26.8227C28.0376 26.2397 28.9787 25.8379 30 25.6777V23.9951C29.4947 23.9449 29.1 23.5185 29.1 23C29.1 22.4477 29.5477 22 30.1 22H31.9C32.4523 22 32.9 22.4477 32.9 23C32.9 23.5185 32.5053 23.9449 32 23.9951V25.6777C33.0213 25.8379 33.9624 26.2397 34.7631 26.8227L35.8858 25.7L35.6929 25.5071C35.3024 25.1166 35.3024 24.4834 35.6929 24.0929C36.0834 23.7024 36.7166 23.7024 37.1071 24.0929L38.9071 25.8929C39.2976 26.2834 39.2976 26.9166 38.9071 27.3071C38.5166 27.6976 37.8834 27.6976 37.4929 27.3071L37.3 27.1142L36.1773 28.2369C36.7603 29.0376 37.1621 29.9787 37.3223 31H39.0049C39.0551 30.4947 39.4815 30.1 40 30.1C40.5523 30.1 41 30.5477 41 31.1V32.9C41 33.4523 40.5523 33.9 40 33.9C39.4815 33.9 39.0551 33.5053 39.0049 33H37.3223C37.1971 33.7981 36.9244 34.5473 36.5329 35.2187L38.2 36.8858L38.3929 36.6929C38.7834 36.3024 39.4166 36.3024 39.8071 36.6929C40.1976 37.0834 40.1976 37.7166 39.8071 38.1071L38.0071 39.9071C37.6166 40.2976 36.9834 40.2976 36.5929 39.9071C36.2024 39.5166 36.2024 38.8834 36.5929 38.4929L36.7858 38.3L35.2611 36.7753C34.3647 37.5757 33.2416 38.1275 32 38.3223V40.0049C32.5053 40.0551 32.9 40.4815 32.9 41C32.9 41.5523 32.4523 42 31.9 42H30.1C29.5477 42 29.1 41.5523 29.1 41C29.1 40.4815 29.4947 40.0551 30 40.0049V38.3223C28.9787 38.1621 28.0376 37.7603 27.2369 37.1773L26.1142 38.3L26.3071 38.4929C26.6976 38.8834 26.6976 39.5166 26.3071 39.9071C25.9166 40.2976 25.2834 40.2976 24.8929 39.9071L23.0929 38.1071C22.7024 37.7166 22.7024 37.0834 23.0929 36.6929C23.4834 36.3024 24.1166 36.3024 24.5071 36.6929L24.7 36.8858L25.8227 35.7631Z" fill="black"/>
</svg>

<svg
  xmlns="http://www.w3.org/2000/svg"
  width="24"
  height="24"
  viewBox="0 0 24 24"
  fill="none"
  stroke="currentColor"
  stroke-width="2"
  stroke-linecap="round"
  stroke-linejoin="round"
>
  <path
    fill-rule="evenodd"
    d="M30.089 7.03a18 18 0 0 0-9.804-.625 18.06 18.06 0 0 0-8.684 4.613A18.16 18.16 0 0 0 6.744 19h8.405a3.55 3.55 0 0 1 2.195.754 3.58 3.58 0 0 1 1.267 1.948v.003l1.284 5.163a3.6 3.6 0 0 1-.65 3.067 3.57 3.57 0 0 1-2.812 1.378h-1.024l-1.552 7.81a18.04 18.04 0 0 0 7.017 2.893 1 1 0 1 1-.357 1.968 20.05 20.05 0 0 1-9.81-4.8 20.16 20.16 0 0 1-5.859-9.236A20.2 20.2 0 0 1 4.668 19a20.17 20.17 0 0 1 5.55-9.427 20.06 20.06 0 0 1 9.645-5.123 20 20 0 0 1 10.892.695 20.1 20.1 0 0 1 8.92 6.308 20.2 20.2 0 0 1 4.316 10.056 1 1 0 1 1-1.982.262 18.2 18.2 0 0 0-3.698-8.82A1 1 0 0 1 38 13h-6.489c-.293 0-.586.103-.831.307a1.56 1.56 0 0 0-.514.845l-1.192 5.077a1 1 0 1 1-1.948-.458l1.193-5.077a3.56 3.56 0 0 1 1.184-1.927 3.3 3.3 0 0 1 2.11-.767h5.032a18.1 18.1 0 0 0-6.456-3.97M6.764 29.375A18.2 18.2 0 0 1 6.274 21h8.878c.347 0 .685.115.96.33.276.215.473.517.56.86l1.281 5.158a1.6 1.6 0 0 1-.287 1.36 1.57 1.57 0 0 1-1.233.605h-1.845a1 1 0 0 0-.981.805l-1.515 7.622-.05-.045a18.16 18.16 0 0 1-5.278-8.32"
    clip-rule="evenodd"
  />
  <path d="M25.823 35.763A6.4 6.4 0 0 1 24.678 33h-1.683A1 1 0 0 1 21 32.9v-1.8a1 1 0 0 1 1.995-.1h1.683a6.4 6.4 0 0 1 1.145-2.763L24.7 27.114l-.193.193a1 1 0 0 1-1.414-1.414l1.8-1.8a1 1 0 0 1 1.414 1.414l-.193.193 1.123 1.123A6.4 6.4 0 0 1 30 25.678v-1.683A1 1 0 0 1 30.1 22h1.8a1 1 0 0 1 .1 1.995v1.683a6.4 6.4 0 0 1 2.763 1.145l1.123-1.123-.193-.193a1 1 0 0 1 1.414-1.414l1.8 1.8a1 1 0 0 1-1.414 1.414l-.193-.193-1.123 1.123c.583.8.985 1.742 1.145 2.763h1.683a1 1 0 0 1 1.995.1v1.8a1 1 0 0 1-1.995.1h-1.683a6.4 6.4 0 0 1-.79 2.219l1.668 1.667.193-.193a1 1 0 0 1 1.414 1.414l-1.8 1.8a1 1 0 0 1-1.414-1.414l.193-.193-1.525-1.525A6.4 6.4 0 0 1 32 38.322v1.683A1 1 0 0 1 31.9 42h-1.8a1 1 0 0 1-.1-1.995v-1.683a6.4 6.4 0 0 1-2.763-1.145L26.114 38.3l.193.193a1 1 0 0 1-1.414 1.414l-1.8-1.8a1 1 0 0 1 1.414-1.414l.193.193z" />
</svg>
